X: 17540
T: Hillsborough Castle
R: hornpipe
M: 4/4
K: Gmajor
G2Bd e/f/edg|G2Bd c/d/cAF|G2Bd e/f/edg|fgaf dcBA|
G2Bd e/f/edg|G2Bd c/d/cAF|G2Bd e/f/edg|fgaf g2 g2:|
Bded gded|Bded AdcA|Bded gded|fgag f/e/d c/B/A|
Bded gded|Bded AdcA|Bded gded|BdcA G2 G2:|

